desc: MS centre boost

midBoostDB:0.00<-15,15>Mid boost (dB)
sideBoostDB:2.00<-15,15>Side boost (dB)


@init
midBoostDB = -0.48;
sideBoostDB = 3.00;

function db2mag(db)
(
  pow(10, db / 20);
);
function mag2db(mag)
(
  20 * log10(mag);
);

midBoost=db2mag(midBoostDB);
sideBoost=db2mag(sideBoostDB);

@sample
mid= (spl0 + spl1) * 0.5;
side= (spl0 - spl1) * 0.5;
mid = mid * midBoost;
side = side * sideBoost;
spl0 = mid - side;
spl1 = mid + side;
